X: 27905
T: Mountain Lark, The
R: reel
M: 4/4
K: Edorian
FEE2 FEDE|FEE2 FABA|FEE2 FEDB,|D2DE FABA|
FEE2 FEDE|FEE2 FABA|FEE2 FEDB,|D2DE FABA||
Bee2 fded|Beec dBAd|Bee2 fded|BABc dBAd|
Bee2 fede|fgfe d2de|fdec dcBA|B2Bc dBAF||

